modules/stroke-7/icons/file.svg

<?xml version="1.0" encoding="utf-8"?>
<!-- Generated by IcoMoon.io -->
<!DOCTYPE svg PUBLIC "-//W3C//DTD SVG 1.1//EN" "http://www.w3.org/Graphics/SVG/1.1/DTD/svg11.dtd">
<svg version="1.1" xmlns="http://www.w3.org/2000/svg" xmlns:xlink="http://www.w3.org/1999/xlink" width="32" height="32" viewBox="0 0 32 32">
<g id="icomoon-ignore">
</g>
<path d="M25.326 12.264l-9.059-9.059h-9.596v25.59h18.659v-16.529l-0.004-0.002zM16.267 4.713l7.022 7.022h-7.022v-7.022zM7.737 27.729v-23.457h7.464v8.53h9.063v14.928h-16.527z" fill="#000000"></path>
</svg>

<svg xmlns="http://www.w3.org/2000/svg" width="32" height="32"><path d="M25.326 12.264l-9.059-9.059H6.671v25.59H25.33V12.266l-.004-.002zm-9.059-7.551l7.022 7.022h-7.022V4.713zm-8.53 23.016V4.272h7.464v8.53h9.063V27.73H7.737z"/></svg>
